icon-svg/nanoleaf-secretlabs.svg

<svg xmlns="http://www.w3.org/2000/svg" viewBox="0 0 24 24"><path fill="#44739e" d="M12.522 9.825v.009l.015-.002.02.009v-.012l7.896-1.338.015-.002v-.254L12.542 9.54 2.076 4.559l-.025-.012v.287l.255.122-.292.063.002.01L2 5.02l.198 9.243v.01l.363.182v-.011h.243L2.623 5.94l.367-.658 7.349 3.502v4.134l.422.246.234-.074V9.097Zm-.456-.039v10.573l.456.226v.01l.015-.003.02.01v-.014l.29-.056-.068-9.827.892-.513 7.298-1.216.158.218-.122 9.355v.012l.534.218v.026l.021-.017.014.005v-.017l.203-.17.151-10.117v-.02l-9.386 1.541ZM20.9 8.151l-.123.275L22 8.218v-.234Zm-.096-.017 1.174-.165L10.491 3.4l-.004-.002-.914.114 11.226 4.62Zm-8.305 1.322 7.954-1.276-11.061-4.6-.004-.001-7.381.896 10.487 4.978Z"/></svg>

<?xml version="1.0" encoding="UTF-8"?>
<svg width="24px" fill="#44739e" height="24px" viewBox="0 0 24 24" version="1.1" xmlns="http://www.w3.org/2000/svg" xmlns:xlink="http://www.w3.org/1999/xlink">
            <path d="m 12.522,9.825 v 0.009 l 0.015,-0.002 0.02,0.009 V 9.829 L 20.453,8.491 20.468,8.489 V 8.235 L 12.542,9.54 2.076,4.559 2.051,4.547 V 4.834 L 2.306,4.956 2.014,5.019 2.016,5.029 2,5.02 2.198,14.263 v 0.01 l 0.363,0.182 V 14.444 H 2.804 L 2.623,5.94 2.99,5.282 10.339,8.784 v 4.134 l 0.422,0.246 0.234,-0.074 V 9.097 Z M 12.066,9.786 v 10.573 l 0.456,0.226 v 0.01 l 0.015,-0.003 0.02,0.01 v -0.014 l 0.29,-0.056 -0.068,-9.827 0.892,-0.513 7.298,-1.216 0.158,0.218 -0.122,9.355 v 0.012 l 0.534,0.218 v 0.026 l 0.021,-0.017 0.014,0.005 v -0.017 l 0.203,-0.17 0.151,-10.117 V 8.469 L 12.542,10.01 Z M 20.9,8.151 20.777,8.426 22,8.218 V 7.984 Z M 20.804,8.134 21.978,7.969 10.491,3.4 10.487,3.398 9.573,3.512 20.799,8.132 Z M 12.499,9.456 20.453,8.18 9.392,3.58 9.388,3.579 2.007,4.475 12.494,9.453 Z"/>

</svg>
